X: 2377
T: Baker's, The
R: reel
M: 4/4
K: Gmajor
|:A|BGDC B,DGB|cEAG FAdc|BGDC B,DGB|ceAf gGG:|
f|g2fg egdB|cBAG FAdf|g2fg egdB|ceAf gGGf|
g2fg egdB|cBAG FAdc|BGDC B,DGB|ceAf gGG||

